X:1
T:Title
%%score { ( 1 3 ) | 2 }
L:1/8
M:4/4
K:Bb
V:1 treble nm="Grand Piano"
V:3 treble 
V:2 bass 
V:1
 z4 z2[Q:1/4=100] [B,D][CE] | [DF]2 [Fd]>[=E_d] [F=d]2 [Fc][FB] | [Gc]2 [GB]2 G2 B2 | %3
 F2 D>E [F,DF]2 [DB]2 |[M:3/4] c6 |[M:1/4] D[CE] |[M:4/4] [DF]2 [Fd]>[=E_d] [F=d]2 [Fc][FB] | %7
 [Gc]2 [GB]2 [EG]2 [Ge]2 | d2 dB c2 c2 |[M:3/4] [DB]6 |[M:1/4] [DF]2 | %11
[M:4/4] [DB]2 [DB]>[DB] [DB][DB][EA][FB] | c2 F4 F2 | c2 cc B2 c2 |[M:3/4] d6[K:bass] | %15
[M:1/4][K:treble] [DF]2 |[M:4/4] [Fd]2 [Fd]>[Fd] [^Fd][Fd][Fd][Fd] | d2 B2 z BAB | %18
 c2 c2 d2 [=Ec]2 | c2[K:bass] E,2 D,2[K:treble] [EF]2 | [DB]2 [DB]>[DB] [DB][DB][EA][FB] | %21
 c2 F4 F2 | c2 cc B2 c2 |[M:3/4] d6[K:bass] |[M:1/4][K:treble] [DF]2 |[M:4/4] G2 ^FG [GB]2 [Fc]2 | %26
[M:17/16] [Fd]-<[Fd][_Ad]-<[Ad][Gf]-<[Gf][Ge]3/2[^Fc] |[M:4/4] d4 c4 |[M:3/4] B6 |] %29
V:2
 z4 z2 [B,,F,][B,,F,] | [B,,B,]2 [B,,B,]>[B,,B,] [B,,B,]2 [C,A,][D,B,] | %2
 [E,B,]2 [E,B,]2 [E,B,E]2 B,2 | F,2 D,>E, B,,2 [B,,F,]2 |[M:3/4] [F,A,E]6 |[M:1/4] [B,,F,][B,,F,] | %6
[M:4/4] [B,,B,]2 [B,,B,]>[B,,B,] [B,,B,]2 [C,A,][D,B,] | [E,B,]2 [E,B,]2 [E,B,]2 [E,B,]2 | %8
 [F,B,F]2 [F,B,F][F,B,D] [F,A,E]2 [F,A,E]2 |[M:3/4] [B,,B,]6 |[M:1/4] [B,,B,]2 | %11
[M:4/4] [B,,F,]2 [B,,F,]>[B,,F,] [B,,F,][B,,F,][C,F,][D,B,] | [F,A,F]2 [F,A,]4 [F,A,]2 | %13
 [F,A,F]2 [F,A,F][F,A,F] [F,DF]2 [A,CF]2 |[M:3/4] [B,F]6 |[M:1/4][K:bass] [B,,B,]2 | %16
[M:4/4] [B,,B,]2 [B,,B,]>[B,,B,] [D,A,][D,A,][D,C][D,C] | [G,B,G]2 [G,DG]2 z [G,DG][G,CG][G,DG] | %18
 [A,CF]2 [A,CF]2[K:bass] [G,B,=E]2 [C,B,]2 | [F,A,E]2 z2 z2 [C,A,]2 | %20
 [B,,F,]2 [B,,F,]>[B,,F,] [B,,F,][B,,F,][C,F,][D,B,] | [F,A,F]2 [F,A,]4 [F,A,]2 | %22
 [F,A,F]2 [F,A,F][F,A,F] [F,DF]2 [A,CF]2 |[M:3/4] [B,F]6 |[M:1/4][K:bass] [B,,B,]2 | %25
[M:4/4] [E,B,E]2 [E,A,E][E,B,E] [E,E]2 [E,B,]2 | %26
[M:17/16] [B,,B,]-<[B,,B,][B,,B,]-<[B,,B,][E,B,]-<[E,B,][E,B,]3/2[E,B,] | %27
[M:4/4] [F,B,F]4 [F,A,E]4 |[M:3/4] [B,D]6 |] %29
V:3
 x8 | x8 | x8 | x8 |[M:3/4] x6 |[M:1/4] x2 |[M:4/4] x8 | x8 | x8 |[M:3/4] x6 |[M:1/4] x2 | %11
[M:4/4] x8 | x8 | x8 |[M:3/4] z2[K:bass] F,D, B,,2 |[M:1/4][K:treble] x2 |[M:4/4] x8 | x8 | x8 | %19
 x2[K:bass] x4[K:treble] x2 | x8 | x8 | x8 |[M:3/4] z2[K:bass] F,D, B,,2 |[M:1/4][K:treble] x2 | %25
[M:4/4] x8 |[M:17/16] x17/2 |[M:4/4] x8 |[M:3/4] x6 |] %29

